src/assets/img/banks-logo/svg/dnb.svg

<svg height="25" viewBox="0 0 49 25" width="49" xmlns="http://www.w3.org/2000/svg"><path d="m28.7905844.02435065v16.42045455l-8.474026-10.79545455c-.0730519-.10551948-.1948052-.16233766-.3165584-.16233766l-.1866883.0487013c-.1298701.07305194-.2029221.21103896-.2029221.36525974v19.03409087h1.2743507v-16.46915581l8.4740259 10.79545451c.073052.0974026.1948052.1623377.3165585.1623377l.1866883-.0487013c.1298701-.0730519.2029221-.211039.2029221-.3652597v-18.98538965h18.7012987v24.91071425h-48.70129874v-24.91071425zm13.7581169 17.10227275c.2516234-.5438312.3814935-1.185065.3814935-1.8993507 0-1.0876623-.4626623-2.0616883-1.2987013-2.7516233-.2191558-.1785715-.4545454-.3327923-.7224026-.4707793l-.0730519-.0324675.0568181-.0487013c.4951299-.4383117 1.0876624-1.25 1.0876624-2.66233766 0-1.29058442-.4464286-2.26461039-1.323052-2.88149351-.7467532-.5275974-1.7694805-.77922078-3.1412337-.77922078h-3.9448052c-.2272728 0-.4139611.18668831-.4139611.41396104v12.92207791c0 .2272727.1866883.4139611.4139611.4139611h4.5048701c1.4204545 0 2.5568182-.3003247 3.3766234-.9009741.4788961-.3490259.8441558-.7954545 1.0957792-1.3230519zm-4.4318182.9496753h-3.6363636v-5.3084416h4.1477273c1.8100649 0 3.0681818 1.0146104 3.0681818 2.4675325 0 .7061688 0 2.8409091-3.5795455 2.8409091zm-3.6363636-11.2012987h3.0925324c1.0876624 0 1.8993507.18668831 2.4188312.54383117.3327922.23538961.7792208.68993506.7792208 1.84253247 0 2.06980516-1.6314935 2.23214286-2.1266234 2.23214286h-4.163961zm-19.025974 10.4301948c1.3230519-1.6152597 1.5178571-3.6688312 1.5178571-4.7483766 0-.9172078-.1461039-3.2305195-1.5178571-4.9107143-.5844156-.71428572-1.3149351-1.25-2.1753247-1.59902598-.7386364-.30032467-1.5503247-.44642857-2.4188312-.44642857h-3.74188311c-.22727272 0-.42207792.18668831-.42207792.41396104v12.92207791c0 .2272727.18668831.4139611.41396104.4139611h3.74188309c.8685065 0 1.6801948-.1542208 2.4188312-.4464286.8685065-.349026 1.6071429-.8847403 2.1834416-1.599026zm-4.5454546.7711039h-2.87337661v-11.2012987h2.88149351c1.0551948 0 2.5405844.27597403 3.6038961 1.57467532 1.1444805 1.40422078 1.2337662 3.49837658 1.2337662 4.10714288 0 .9090909-.1623376 2.6298701-1.2337662 3.9448052-1.0714286 1.2987013-2.5487013 1.5746753-3.612013 1.5746753z" fill="#fff"/></svg>

<?xml version="1.0" encoding="UTF-8"?>
<svg width="49px" height="25px" viewBox="0 0 49 25" version="1.1" xmlns="http://www.w3.org/2000/svg" xmlns:xlink="http://www.w3.org/1999/xlink">
    <!-- Generator: Sketch 47.1 (45422) - http://www.bohemiancoding.com/sketch -->
    <title>dnb-asa-vector-logo</title>
    <desc>Created with Sketch.</desc>
    <defs></defs>
    <g id="mobile" stroke="none" stroke-width="1" fill="none" fill-rule="evenodd">
        <g id="frontpage" transform="translate(-76.000000, -487.000000)" fill-rule="nonzero" fill="#FFFFFF">
            <g id="Group-22" transform="translate(20.000000, 401.000000)">
                <g id="Group-18" transform="translate(0.000000, 74.000000)">
                    <g id="dnb-asa-vector-logo" transform="translate(56.000000, 12.000000)">
                        <path d="M28.7905844,0.0243506494 L28.7905844,16.4448052 L20.3165584,5.64935065 C20.2435065,5.54383117 20.1217532,5.48701299 20,5.48701299 L19.8133117,5.53571429 C19.6834416,5.60876623 19.6103896,5.74675325 19.6103896,5.90097403 L19.6103896,24.9350649 L20.8847403,24.9350649 L20.8847403,8.46590909 L29.3587662,19.2613636 C29.4318182,19.3587662 29.5535714,19.4237013 29.6753247,19.4237013 L29.862013,19.375 C29.9918831,19.3019481 30.0649351,19.163961 30.0649351,19.0097403 L30.0649351,0.0243506494 L48.7662338,0.0243506494 L48.7662338,24.9350649 L0.0649350649,24.9350649 L0.0649350649,0.0243506494 L28.7905844,0.0243506494 Z M42.5487013,17.1266234 C42.8003247,16.5827922 42.9301948,15.9415584 42.9301948,15.2272727 C42.9301948,14.1396104 42.4675325,13.1655844 41.6314935,12.4756494 C41.4123377,12.2970779 41.1769481,12.1428571 40.9090909,12.0048701 L40.836039,11.9724026 L40.8928571,11.9237013 C41.387987,11.4853896 41.9805195,10.6737013 41.9805195,9.26136364 C41.9805195,7.97077922 41.5340909,6.99675325 40.6574675,6.37987013 C39.9107143,5.85227273 38.887987,5.60064935 37.5162338,5.60064935 L33.5714286,5.60064935 C33.3441558,5.60064935 33.1574675,5.78733766 33.1574675,6.01461039 L33.1574675,18.9366883 C33.1574675,19.163961 33.3441558,19.3506494 33.5714286,19.3506494 L38.0762987,19.3506494 C39.4967532,19.3506494 40.6331169,19.0503247 41.4529221,18.4496753 C41.9318182,18.1006494 42.2970779,17.6542208 42.5487013,17.1266234 Z M38.1168831,18.0762987 L34.4805195,18.0762987 L34.4805195,12.7678571 L38.6282468,12.7678571 C40.4383117,12.7678571 41.6964286,13.7824675 41.6964286,15.2353896 C41.6964286,15.9415584 41.6964286,18.0762987 38.1168831,18.0762987 Z M34.4805195,6.875 L37.5730519,6.875 C38.6607143,6.875 39.4724026,7.06168831 39.9918831,7.41883117 C40.3246753,7.65422078 40.7711039,8.10876623 40.7711039,9.26136364 C40.7711039,11.3311688 39.1396104,11.4935065 38.6444805,11.4935065 L34.4805195,11.4935065 L34.4805195,6.875 L34.4805195,6.875 Z M15.4545455,17.3051948 C16.7775974,15.6899351 16.9724026,13.6363636 16.9724026,12.5568182 C16.9724026,11.6396104 16.8262987,9.3262987 15.4545455,7.6461039 C14.8701299,6.93181818 14.1396104,6.3961039 13.2792208,6.04707792 C12.5405844,5.74675325 11.7288961,5.60064935 10.8603896,5.60064935 L7.11850649,5.60064935 C6.89123377,5.60064935 6.69642857,5.78733766 6.69642857,6.01461039 L6.69642857,18.9366883 C6.69642857,19.163961 6.88311688,19.3506494 7.11038961,19.3506494 L10.8522727,19.3506494 C11.7207792,19.3506494 12.5324675,19.1964286 13.2711039,18.9042208 C14.1396104,18.5551948 14.8782468,18.0194805 15.4545455,17.3051948 Z M10.9090909,18.0762987 L8.03571429,18.0762987 L8.03571429,6.875 L10.9172078,6.875 C11.9724026,6.875 13.4577922,7.15097403 14.5211039,8.44967532 C15.6655844,9.8538961 15.7548701,11.9480519 15.7548701,12.5568182 C15.7548701,13.4659091 15.5925325,15.1866883 14.5211039,16.5016234 C13.4496753,17.8003247 11.9724026,18.0762987 10.9090909,18.0762987 Z" id="Combined-Shape"></path>
                    </g>
                </g>
            </g>
        </g>
    </g>
</svg>
